img/symbol-semidesierto.svg

<svg width="23" height="29" viewBox="0 0 23 29" fill="none" xmlns="http://www.w3.org/2000/svg">
<path d="M5.61353 28.7545C5.89198 18.4713 6.39515 10.7771 6.73711 7.70679C6.79574 7.19141 6.98381 5.11277 8.35899 3.29549C9.39708 1.92276 10.4889 1.09961 12.2354 1.09961C13.271 1.09961 15.2544 2.01802 15.9041 3.55929C16.4342 4.81233 16.654 6.18751 16.8225 8.22706C17.1987 12.7947 17.0961 17.3916 17.1108 21.9739C17.1156 23.5323 17.1474 25.843 17.2744 28.6715C13.3883 28.6983 9.49967 28.7252 5.61353 28.7521V28.7545Z" fill="#BC5006" stroke="#F6E9CD" stroke-miterlimit="10"/>
<path d="M6.91297 16.5884C6.4782 16.989 5.73321 16.8131 5.33262 16.3808C4.93204 15.9485 4.78549 15.3427 4.65359 14.7662C4.34094 13.3886 4.02584 12.0086 3.71319 10.631C3.56175 9.96413 3.29063 9.17274 2.62136 9.03107C2.12307 8.92359 1.62478 9.25823 1.31458 9.66125C0.652637 10.521 0.550049 11.6764 0.550049 12.7609C0.550049 13.9309 0.642867 15.1009 0.823618 16.2562C1.03124 17.5801 1.43671 19.0066 2.54075 19.7687C3.232 20.245 4.09424 20.3842 4.92471 20.5112C5.65749 20.6236 6.38782 20.7359 7.12059 20.8458" fill="#BC5006"/>
<path d="M6.91297 16.5884C6.4782 16.989 5.73321 16.8131 5.33262 16.3808C4.93204 15.9485 4.78549 15.3427 4.65359 14.7662C4.34094 13.3886 4.02584 12.0086 3.71319 10.631C3.56175 9.96413 3.29063 9.17274 2.62136 9.03107C2.12307 8.92359 1.62478 9.25823 1.31458 9.66125C0.652637 10.521 0.550049 11.6764 0.550049 12.7609C0.550049 13.9309 0.642867 15.1009 0.823618 16.2562C1.03124 17.5801 1.43671 19.0066 2.54075 19.7687C3.232 20.245 4.09424 20.3842 4.92471 20.5112C5.65749 20.6236 6.38782 20.7359 7.12059 20.8458" stroke="#F6E9CD" stroke-miterlimit="10"/>
<path d="M15.8873 12.2398C16.3221 12.6404 17.0671 12.4645 17.4677 12.0322C17.8682 11.5998 18.0148 10.9941 18.1467 10.4176C18.4593 9.04 18.7744 7.65994 19.0871 6.28232C19.2385 5.6155 19.5097 4.8241 20.1789 4.68243C20.6772 4.57496 21.1755 4.90959 21.4857 5.31262C22.1476 6.17241 22.2502 7.32775 22.2502 8.41226C22.2502 9.58225 22.1574 10.7522 21.9767 11.9076C21.769 13.2315 21.3636 14.6579 20.2595 15.42C19.5683 15.8963 18.706 16.0356 17.8756 16.1626C17.1428 16.2749 16.4125 16.3873 15.6797 16.4972" fill="#BC5006"/>
<path d="M15.8873 12.2398C16.3221 12.6404 17.0671 12.4645 17.4677 12.0322C17.8682 11.5998 18.0148 10.9941 18.1467 10.4176C18.4593 9.04 18.7744 7.65994 19.0871 6.28232C19.2385 5.6155 19.5097 4.8241 20.1789 4.68243C20.6772 4.57496 21.1755 4.90959 21.4857 5.31262C22.1476 6.17241 22.2502 7.32775 22.2502 8.41226C22.2502 9.58225 22.1574 10.7522 21.9767 11.9076C21.769 13.2315 21.3636 14.6579 20.2595 15.42C19.5683 15.8963 18.706 16.0356 17.8756 16.1626C17.1428 16.2749 16.4125 16.3873 15.6797 16.4972" stroke="#F6E9CD" stroke-miterlimit="10"/>
</svg>

<?xml version="1.0" encoding="utf-8"?>
<!-- Generator: Adobe Illustrator 27.9.0, SVG Export Plug-In . SVG Version: 6.00 Build 0)  -->
<svg version="1.1" id="Layer_1" xmlns="http://www.w3.org/2000/svg" xmlns:xlink="http://www.w3.org/1999/xlink" x="0px" y="0px"
	 viewBox="0 0 23 29" style="enable-background:new 0 0 23 29;" xml:space="preserve">
<style type="text/css">
	.st0{fill:#DAB28D;stroke:#BC5006;stroke-miterlimit:10;}
	.st1{fill:#DAB28D;}
	.st2{fill:none;stroke:#BC5006;stroke-miterlimit:10;}
</style>
<path class="st0" d="M5.6,28.8c0.3-10.3,0.8-18,1.1-21C6.8,7.2,7,5.1,8.4,3.3c1-1.4,2.1-2.2,3.9-2.2c1,0,3,0.9,3.7,2.5
	c0.5,1.3,0.7,2.6,0.9,4.7c0.4,4.6,0.3,9.2,0.3,13.7c0,1.6,0,3.9,0.2,6.7C13.4,28.7,9.5,28.7,5.6,28.8L5.6,28.8z"/>
<path class="st1" d="M6.9,16.6c-0.4,0.4-1.2,0.2-1.6-0.2c-0.4-0.4-0.5-1-0.7-1.6C4.3,13.4,4,12,3.7,10.6C3.6,10,3.3,9.2,2.6,9
	c-0.5-0.1-1,0.2-1.3,0.6c-0.7,0.9-0.8,2-0.8,3.1c0,1.2,0.1,2.3,0.3,3.5C1,17.6,1.4,19,2.5,19.8c0.7,0.5,1.6,0.6,2.4,0.7
	c0.7,0.1,1.5,0.2,2.2,0.3"/>
<path class="st2" d="M6.9,16.6c-0.4,0.4-1.2,0.2-1.6-0.2c-0.4-0.4-0.5-1-0.7-1.6C4.3,13.4,4,12,3.7,10.6C3.6,10,3.3,9.2,2.6,9
	c-0.5-0.1-1,0.2-1.3,0.6c-0.7,0.9-0.8,2-0.8,3.1c0,1.2,0.1,2.3,0.3,3.5C1,17.6,1.4,19,2.5,19.8c0.7,0.5,1.6,0.6,2.4,0.7
	c0.7,0.1,1.5,0.2,2.2,0.3"/>
<path class="st1" d="M15.9,12.2c0.4,0.4,1.2,0.2,1.6-0.2c0.4-0.4,0.5-1,0.7-1.6c0.3-1.4,0.6-2.8,0.9-4.1c0.2-0.7,0.4-1.5,1.1-1.6
	c0.5-0.1,1,0.2,1.3,0.6c0.7,0.9,0.8,2,0.8,3.1c0,1.2-0.1,2.3-0.3,3.5c-0.2,1.3-0.6,2.8-1.7,3.5c-0.7,0.5-1.6,0.6-2.4,0.7
	c-0.7,0.1-1.5,0.2-2.2,0.3"/>
<path class="st2" d="M15.9,12.2c0.4,0.4,1.2,0.2,1.6-0.2c0.4-0.4,0.5-1,0.7-1.6c0.3-1.4,0.6-2.8,0.9-4.1c0.2-0.7,0.4-1.5,1.1-1.6
	c0.5-0.1,1,0.2,1.3,0.6c0.7,0.9,0.8,2,0.8,3.1c0,1.2-0.1,2.3-0.3,3.5c-0.2,1.3-0.6,2.8-1.7,3.5c-0.7,0.5-1.6,0.6-2.4,0.7
	c-0.7,0.1-1.5,0.2-2.2,0.3"/>
</svg>
